Newaita-dark/apps/32/klickety.svg

<svg height="32pt" viewBox="0 0 32 32" width="32pt" xmlns="http://www.w3.org/2000/svg" xmlns:xlink="http://www.w3.org/1999/xlink"><linearGradient id="a" gradientUnits="userSpaceOnUse" x1="15.875" x2="15.875" y1="28.03275" y2="29.3556875"><stop offset="0" stop-opacity=".275"/><stop offset="1" stop-opacity="0"/></linearGradient><linearGradient id="b"><stop offset="0" stop-opacity=".314"/><stop offset=".222" stop-opacity=".275"/><stop offset="1" stop-opacity="0"/></linearGradient><radialGradient id="c" cx="450.909" cy="189.579" gradientTransform="matrix(0 -.07813 -.14064 0 52.13 63.595)" gradientUnits="userSpaceOnUse" r="21.167" xlink:href="#b"/><radialGradient id="d" cx="450.909" cy="189.579" gradientTransform="matrix(0 .07813 .14064 0 -20.378 -7.527)" gradientUnits="userSpaceOnUse" r="21.167" xlink:href="#b"/><radialGradient id="e" cx="450.909" cy="189.579" gradientTransform="matrix(0 -.07813 .14064 0 -20.378 63.595)" gradientUnits="userSpaceOnUse" r="21.167" xlink:href="#b"/><radialGradient id="f" cx="450.909" cy="189.579" gradientTransform="matrix(0 .07813 -.14064 0 52.13 -7.527)" gradientUnits="userSpaceOnUse" r="21.167" xlink:href="#b"/><linearGradient id="g" gradientUnits="userSpaceOnUse" x1="10.5833125" x2="10.5833125" y1="28.03275" y2="2.8973125"><stop offset="0" stop-color="#ef5350"/><stop offset="1" stop-color="#e57373"/></linearGradient><linearGradient id="h" gradientUnits="userSpaceOnUse" x1="10.5833125" x2="10.5833125" y1="28.03275" y2="2.8973125"><stop offset="0" stop-color="#42a5f5"/><stop offset="1" stop-color="#64b5f6"/></linearGradient><linearGradient id="i" gradientTransform="matrix(0 .0625 .0625 0 13.85 -.411)" gradientUnits="userSpaceOnUse" x1="455.083" x2="52.917" y1="-62.834" y2="-62.834"><stop offset="0" stop-color="#ff7043"/><stop offset="1" stop-color="#ff8a65"/></linearGradient><linearGradient id="j" gradientUnits="userSpaceOnUse" x1="10.5833125" x2="10.5833125" y1="28.03275" y2="2.8973125"><stop offset="0" stop-color="#9ccc65"/><stop offset="1" stop-color="#aed581"/></linearGradient><path d="m5.953 27.938h19.848v1.468h-19.848zm0 0" fill="url(#a)"/><path d="m25.8 28.035h2.645v-1.324h-2.644zm0 0" fill="url(#c)"/><path d="m5.953 28.035h-2.643v1.32h2.644zm0 0" fill="url(#d)"/><path d="m5.953 28.035h-2.643v-1.324h2.644zm0 0" fill="url(#e)"/><path d="m25.8 28.035h2.645v1.32h-2.644zm0 0" fill="url(#f)"/><path d="m4.629 2.895h22.491c.73 0 1.324.593 1.324 1.324v22.491c0 .73-.593 1.324-1.324 1.324h-22.49c-.73 0-1.32-.594-1.32-1.324v-22.491c0-.73.59-1.324 1.32-1.324zm0 0" fill="url(#g)"/><path d="m15.875 2.895v12.57h12.57v-11.246a1.32 1.32 0 0 0 -1.324-1.324zm0 0" fill="url(#h)"/><path d="m3.309 15.05h25.136v.333h-25.135zm0 0" fill-opacity=".235"/><path d="m3.309 4.672v-.484c0-.731.59-1.32 1.32-1.32h22.491c.734 0 1.324.589 1.324 1.32v.484a1.32 1.32 0 0 0 -1.324-1.324h-22.49c-.73 0-1.32.59-1.32 1.324zm0 0" fill="#fff" fill-opacity=".392"/><path d="m3.309 15.465h12.566v12.57h-11.246c-.73 0-1.32-.59-1.32-1.324zm0 0" fill="url(#i)"/><path d="m15.465 28.035v-25.14h.328v25.14zm0 0" fill-opacity=".235"/><path d="m15.96 28.035v-25.14h.33v25.14zm0 0" fill="#fff" fill-opacity=".588"/><path d="m15.875 15.465v12.57h11.246a1.32 1.32 0 0 0 1.324-1.324v-11.246zm0 0" fill="url(#j)"/><path d="m4.629 15.465c-.73 0-1.32.59-1.32 1.324v7.277c3.507.805 7.855 1.286 12.566 1.286 4.715 0 9.059-.48 12.57-1.286v-7.276a1.32 1.32 0 0 0 -1.324-1.324zm0 0" fill="#fff" fill-opacity=".157"/><path d="m3.309 15.547h25.136v.332h-25.135zm0 0" fill="#fff" fill-opacity=".588"/><path d="m3.309 26.227v.484c0 .734.59 1.324 1.32 1.324h22.491a1.32 1.32 0 0 0 1.324-1.324v-.484a1.32 1.32 0 0 1 -1.324 1.324h-22.49c-.73 0-1.32-.59-1.32-1.324zm0 0" fill-opacity=".235"/><path d="m4.629 2.895c-.73 0-1.32.59-1.32 1.324v7.277c3.507.809 7.855 1.285 12.566 1.285 4.715 0 9.059-.476 12.57-1.285v-7.276a1.32 1.32 0 0 0 -1.324-1.324zm0 0" fill="#fff" fill-opacity=".157"/><path d="m15.781 2.8h-11.151c-.781 0-1.414.638-1.414 1.419v22.491c0 .219.05.43.137.613.011.024.023.043.03.063.243.441.712.742 1.247.742h22.49c.785 0 1.418-.633 1.418-1.418v-22.491c0-.121-.016-.242-.043-.356-.008-.027-.02-.058-.027-.09 0 0-.004-.003-.004-.007l-.012-.036c-.004-.003-.004-.011-.008-.02 0-.003-.004-.007-.004-.01-.003-.013-.007-.02-.011-.032-.008-.012-.012-.023-.016-.031l-.008-.02c-.004-.004-.004-.008-.008-.012-.003-.011-.007-.023-.015-.03a.117.117 0 0 0 -.016-.032c-.004-.008-.012-.02-.015-.031l-.016-.028c-.012-.02-.027-.039-.04-.058l-.01-.016c-.009-.012-.016-.027-.028-.039-.012-.02-.028-.035-.043-.055a.495.495 0 0 0 -.043-.05l-.047-.047a1.41 1.41 0 0 0 -1.004-.418zm-11.151.189h11.15v12.383h-12.378v-11.152c0-.684.547-1.23 1.227-1.23zm11.34 0h11.15a1.221 1.221 0 0 1 .95.45c.011.011.019.023.03.035 0 .004.004.007.008.007.012.016.024.036.036.051a.96.96 0 0 1 .085.153c.02.035.036.074.047.113.008.015.012.035.02.055.035.117.055.238.055.367v11.15h-12.382zm-12.568 12.569h12.38v12.383h-11.154c-.02 0-.04 0-.063-.003a1.223 1.223 0 0 1 -.468-.118 1.218 1.218 0 0 1 -.695-1.11zm12.567 0h12.383v11.153c0 .684-.547 1.23-1.23 1.23h-11.154zm0 0" fill="#212121"/></svg>

<svg xmlns="http://www.w3.org/2000/svg" width="32pt" height="32pt" viewBox="0 0 32 32"><defs><linearGradient id="a" gradientUnits="userSpaceOnUse" x1="254" y1="233.5" x2="254" y2="254.667" gradientTransform="matrix(.0625 0 0 .0625 0 13.439)"><stop offset="0" stop-opacity=".275"/><stop offset="1" stop-opacity="0"/></linearGradient><radialGradient id="b" gradientUnits="userSpaceOnUse" cx="450.909" cy="189.579" fx="450.909" fy="189.579" r="21.167" gradientTransform="matrix(0 -.07813 -.14064 0 52.13 63.595)"><stop offset="0" stop-opacity=".314"/><stop offset=".222" stop-opacity=".275"/><stop offset="1" stop-opacity="0"/></radialGradient><radialGradient id="c" gradientUnits="userSpaceOnUse" cx="450.909" cy="189.579" fx="450.909" fy="189.579" r="21.167" gradientTransform="matrix(0 .07813 .14064 0 -20.378 -7.527)"><stop offset="0" stop-opacity=".314"/><stop offset=".222" stop-opacity=".275"/><stop offset="1" stop-opacity="0"/></radialGradient><radialGradient id="d" gradientUnits="userSpaceOnUse" cx="450.909" cy="189.579" fx="450.909" fy="189.579" r="21.167" gradientTransform="matrix(0 -.07813 .14064 0 -20.378 63.595)"><stop offset="0" stop-opacity=".314"/><stop offset=".222" stop-opacity=".275"/><stop offset="1" stop-opacity="0"/></radialGradient><radialGradient id="e" gradientUnits="userSpaceOnUse" cx="450.909" cy="189.579" fx="450.909" fy="189.579" r="21.167" gradientTransform="matrix(0 .07813 -.14064 0 52.13 -7.527)"><stop offset="0" stop-opacity=".314"/><stop offset=".222" stop-opacity=".275"/><stop offset="1" stop-opacity="0"/></radialGradient><linearGradient id="f" gradientUnits="userSpaceOnUse" x1="169.333" y1="233.5" x2="169.333" y2="-168.667" gradientTransform="matrix(.0625 0 0 .0625 0 13.439)"><stop offset="0" stop-color="#ef5350"/><stop offset="1" stop-color="#e57373"/></linearGradient><linearGradient id="g" gradientUnits="userSpaceOnUse" x1="169.333" y1="233.5" x2="169.333" y2="-168.667" gradientTransform="matrix(.0625 0 0 .0625 0 13.439)"><stop offset="0" stop-color="#42a5f5"/><stop offset="1" stop-color="#64b5f6"/></linearGradient><linearGradient id="h" gradientUnits="userSpaceOnUse" x1="455.083" y1="-62.834" x2="52.917" y2="-62.834" gradientTransform="matrix(0 .0625 .0625 0 13.85 -.411)"><stop offset="0" stop-color="#ff7043"/><stop offset="1" stop-color="#ff8a65"/></linearGradient><linearGradient id="i" gradientUnits="userSpaceOnUse" x1="169.333" y1="233.5" x2="169.333" y2="-168.667" gradientTransform="matrix(.0625 0 0 .0625 0 13.439)"><stop offset="0" stop-color="#9ccc65"/><stop offset="1" stop-color="#aed581"/></linearGradient></defs><path d="M5.953 27.938h19.848v1.468H5.953zm0 0" fill="url(#a)"/><path d="M25.8 28.035h2.645v-1.324h-2.644zm0 0" fill="url(#b)"/><path d="M5.953 28.035H3.31v1.32h2.644zm0 0" fill="url(#c)"/><path d="M5.953 28.035H3.31v-1.324h2.644zm0 0" fill="url(#d)"/><path d="M25.8 28.035h2.645v1.32h-2.644zm0 0" fill="url(#e)"/><path d="M4.629 2.895H27.12c.73 0 1.324.593 1.324 1.324V26.71c0 .73-.593 1.324-1.324 1.324H4.63c-.73 0-1.32-.594-1.32-1.324V4.219c0-.73.59-1.324 1.32-1.324zm0 0" fill="url(#f)"/><path d="M15.875 2.895v12.57h12.57V4.219a1.32 1.32 0 0 0-1.324-1.324zm0 0" fill="url(#g)"/><path d="M3.309 15.05h25.136v.333H3.31zm0 0" fill-opacity=".235"/><path d="M3.309 4.672v-.484c0-.731.59-1.32 1.32-1.32H27.12c.734 0 1.324.589 1.324 1.32v.484a1.32 1.32 0 0 0-1.324-1.324H4.63c-.73 0-1.32.59-1.32 1.324zm0 0" fill="#fff" fill-opacity=".392"/><path d="M3.309 15.465h12.566v12.57H4.629c-.73 0-1.32-.59-1.32-1.324zm0 0" fill="url(#h)"/><path d="M15.465 28.035V2.895h.328v25.14zm0 0" fill-opacity=".235"/><path d="M15.96 28.035V2.895h.33v25.14zm0 0" fill="#fff" fill-opacity=".588"/><path d="M15.875 15.465v12.57h11.246a1.32 1.32 0 0 0 1.324-1.324V15.465zm0 0" fill="url(#i)"/><path d="M4.629 15.465c-.73 0-1.32.59-1.32 1.324v7.277c3.507.805 7.855 1.286 12.566 1.286 4.715 0 9.059-.48 12.57-1.286V16.79a1.32 1.32 0 0 0-1.324-1.324zm0 0" fill="#fff" fill-opacity=".157"/><path d="M3.309 15.547h25.136v.332H3.31zm0 0" fill="#fff" fill-opacity=".588"/><path d="M3.309 26.227v.484c0 .734.59 1.324 1.32 1.324H27.12a1.32 1.32 0 0 0 1.324-1.324v-.484a1.32 1.32 0 0 1-1.324 1.324H4.63c-.73 0-1.32-.59-1.32-1.324zm0 0" fill-opacity=".235"/><path d="M4.629 2.895c-.73 0-1.32.59-1.32 1.324v7.277c3.507.809 7.855 1.285 12.566 1.285 4.715 0 9.059-.476 12.57-1.285V4.22a1.32 1.32 0 0 0-1.324-1.324zm0 0" fill="#fff" fill-opacity=".157"/><path d="M15.781 2.8H4.63c-.781 0-1.414.638-1.414 1.419V26.71c0 .219.05.43.137.613.011.024.023.043.03.063.243.441.712.742 1.247.742H27.12c.785 0 1.418-.633 1.418-1.418V4.219c0-.121-.016-.242-.043-.356-.008-.027-.02-.058-.027-.09 0 0-.004-.003-.004-.007l-.012-.036c-.004-.003-.004-.011-.008-.02 0-.003-.004-.007-.004-.01-.003-.013-.007-.02-.011-.032-.008-.012-.012-.023-.016-.031l-.008-.02c-.004-.004-.004-.008-.008-.012-.003-.011-.007-.023-.015-.03a.117.117 0 0 0-.016-.032c-.004-.008-.012-.02-.015-.031l-.016-.028c-.012-.02-.027-.039-.04-.058l-.01-.016c-.009-.012-.016-.027-.028-.039-.012-.02-.028-.035-.043-.055a.495.495 0 0 0-.043-.05l-.047-.047a1.41 1.41 0 0 0-1.004-.418zM4.63 2.989H15.78v12.383H3.402V4.22c0-.684.547-1.23 1.227-1.23zm11.34 0H27.12a1.221 1.221 0 0 1 .95.45c.011.011.019.023.03.035 0 .004.004.007.008.007.012.016.024.036.036.051a.96.96 0 0 1 .085.153c.02.035.036.074.047.113.008.015.012.035.02.055.035.117.055.238.055.367V15.37H15.969zM3.402 15.558h12.38v12.383H4.628c-.02 0-.04 0-.063-.003a1.223 1.223 0 0 1-.468-.118 1.218 1.218 0 0 1-.695-1.11zm12.567 0h12.383v11.153c0 .684-.547 1.23-1.23 1.23H15.968zm0 0" fill="#212121"/></svg>
